X: 1
T: Stuart Anderson's Reel  (G)
C: Ken Martlew
R: reel
Z: 2012 John Chambers <jc:trillian.mit.edu>
M: C|
L: 1/8
K: G
D2 |\
"G"G2Bd "Am"cBAG | "D"ADD^C D2D2 | "G"G2Bd "Am"cBAG | "A7"Add^c "D"d2AB ||
"D7"cAFA DcBA | "G"BGFG D2GF | "C"EGce "G"dBGD | "Am"Ec"D7"BA "G"G2 |]
FG |\
"D"ADD^C D2Ac | "G"BGGF G2Bd | "C"ec"/B"dB "Am"cA"G"BG | "A7"AGFE "D"D2AB | "D7"cAFA DcBA |
[1 "G"BGFG "(Em)"D2ED | "A7"^CEGB "D"AFAd | "Em"Be "A7"d^c "D"d2 :|\
[2 "G"BGFG D2GF | "C"EGce "G"dBGD | "Am"Ec "D7"BA "G"G2 |]
